proprietary/assets/icons/computer-en-internet/webwinkel.svg

<svg height="64" viewBox="0 0 64 64" width="64" xmlns="http://www.w3.org/2000/svg"><path d="m0 0h64v64h-64z" fill="none"/><path d="m55 7h-46c-1.1045 0-2 .8955-2 2v34.99c0 1.1045.8955 2 2 2h16.5s-.5342 1.9412-1.5 5.01c-.5779 1.8373-2.3791 1.992-2.8691 2h-2.1309c-.5527 0-1 .4478-1 1v2h28v-2c0-.5522-.4473-1-1-1h-2.1309c-.49-.008-2.2912-.1627-2.8691-2-.3881-1.233-.7027-2.2706-.9447-3.0848 0 0-4.4024-.6396-8.9772-1.5323-.3203-.0625-.2812-.2969-.2443-.3828h25.1662c1.1045 0 2-.8955 2-2v-35.0001c0-1.1045-.8955-2-2-2zm-3 32h-40v-27h40z"/><circle cx="28" cy="34" r="2"/><circle cx="37" cy="34" r="2"/><path d="m24.7346 17h1.2654l.8977 8.9224.0155.015-1.4713 2.9431c-.2285.4575-.2041.9902.0645 1.4253.269.4344.7348.6942 1.246.6942h12.2476c.3869 0 .7006-.4478.7006-1 0-.5523-.3137-1-.7006-1h-11.3818l1.0016-2.0033h9.8422s1.389.0133 1.5381-1.0758c.1917-1.3997.9999-7.7606.9999-7.7606s.0191-1.1536-1.1345-1.1536c-.8663 0-7.7759 0-11.8723 0l.0068-.0067-.6906-1.3811c-.1896-.3793-.5773-.6189-1.0014-.6189h-1.5735c-.4056 0-.7345.3289-.7345.7346v.5309c0 .4056.3289.7345.7346.7345z"/></svg>

<?xml version="1.0" encoding="utf-8"?>
<!-- Generator: Adobe Illustrator 17.1.0, SVG Export Plug-In . SVG Version: 6.00 Build 0)  -->
<svg version="1.2" baseProfile="tiny" xmlns="http://www.w3.org/2000/svg" xmlns:xlink="http://www.w3.org/1999/xlink" x="0px"
	 y="0px" width="64px" height="64px" viewBox="0 0 64 64" xml:space="preserve">
<g id="Box">
	<rect fill="none" width="64" height="64"/>
</g>
<g id="Icon">
	<g>
		<path d="M55,7H9C7.8955,7,7,7.8955,7,9v34.99c0,1.1045,0.8955,2,2,2h16.5c0,0-0.5342,1.9412-1.5,5.01
			c-0.5779,1.8373-2.3791,1.992-2.8691,2H19c-0.5527,0-1,0.4478-1,1v2h28v-2c0-0.5522-0.4473-1-1-1h-2.1309
			c-0.49-0.008-2.2912-0.1627-2.8691-2c-0.3881-1.233-0.7027-2.2706-0.9447-3.0848c0,0-4.4024-0.6396-8.9772-1.5323
			c-0.3203-0.0625-0.2812-0.2969-0.2443-0.3828H55c1.1045,0,2-0.8955,2-2V9C57,7.8955,56.1045,7,55,7z M52,39H12V12h40V39z"/>
		<circle cx="28" cy="34" r="2"/>
		<circle cx="37" cy="34" r="2"/>
		<path d="M24.7346,17H26l0.8977,8.9224l0.0155,0.015l-1.4713,2.9431c-0.2285,0.4575-0.2041,0.9902,0.0645,1.4253
			C25.7754,30.7402,26.2412,31,26.7524,31H39c0.3869,0,0.7006-0.4478,0.7006-1c0-0.5523-0.3137-1-0.7006-1H27.6182l1.0016-2.0033
			c1.9291,0,7.8731,0,9.8422,0c0,0,1.389,0.0133,1.5381-1.0758C40.1918,24.5212,41,18.1603,41,18.1603s0.0191-1.1536-1.1345-1.1536
			c-0.8663,0-7.7759,0-11.8723,0L28,17l-0.6906-1.3811C27.1198,15.2396,26.7321,15,26.308,15h-1.5735
			C24.3289,15,24,15.3289,24,15.7346v0.5309C24,16.6711,24.3289,17,24.7346,17z"/>
	</g>
</g>
</svg>
